!!!COM: Schubert, Franz
!!!CNT: Deutscher
!!!TXO: Deutsch
!!!LYR: Jacob Micolaus Craigher de Jache Lutta
!!!OTL: "Die junge Nonne"
!!!OPS: Op. 43
!!!ONM: No. 1
!!!ODT: 1825/
!!NB: Vocal melody only encoded.
!!NB: Original key f minor
**kern	**silbe
*clefG4	*
*k[f#]	*
*M12/8	*
*MM[massig]	*
=9	=9
2.r	.
4.r	.
4r	.
{8e	{Wie
=10	=10
[4.e	braust
8e]	|
8g	durch
8a	die
[4.b	Wip-
8b]	|
8g	-fel
8e	der
=11	=11
4.cc	heu-
4cc	-len-
8cc	-de
2.cc}	Sturm!}
=13	=13
2.r	.
4.r	.
4r	.
{8e	{Es
=14	=14
[4.e	klir-
8e]	|
8g	-ren
8b	die
[4.cc	Bal-
8cc]	|
8g	-ken,
8e	es
=15	=15
4.cc	zit-
4cc	-tert
8cc	das
2.cc}	Haus!}
=17	=17
2.r	.
4.r	.
4r	.
{8fn	{Es
=18	=18
[4.fn	rol-
8fn]	|
8a-	-let
8b-	der
[4.cc	Don-
8cc]	|
8a-	-ner,
8fn	es
=19	=19
4.dd-	leuch-
4dd-	-tet
8dd-	der
2.dd-}	Blitz!}
=21	=21
2.r	.
4.r	.
4r	.
{8dd-	{Und
=22	=22
2.dd-	fin-
4.dd-	-ster
4.dd-	die
=23	=23
2.dd-}	Nacht,}
4.r	.
{4.dd-	{und
=24	=24
2.cc	fin-
4.cc	-ster
4.cc	die
=25	=25
2.cc}	Nacht,}
2.r	.
=27	=27
{[2.b	{wie
4.b]	|
4.b	das
=28	=28
1.b}	Grab!}
=31	=31
{[4.cc#	{Im-
4cc#]	|
8cc#	-mer-
2.b	-hin,
=32	=32
[4.ee	im-
8ee]	|
8dd#	|
8cc#	-mer-
2.b}	-hin!}
=33	=33
2.r	.
4.r	.
4r	.
{8gn	{So
=34	=34
4.f#	tobt'
4a	es
8ccn	auch
4.b	ju2ngst
4d#	noch
8d#	in
=35	=35
4.e}	mir!}
4.r	.
4.r	.
4r	.
{8e	{Es
=36	=36
[4.e	brau-
8e]	|
8g	-ste
8a	das
[4.b	Le-
8b]	|
8g	-ben,
8e	wie
=37	=37
4.cc	jet-
4cc	-zo
8cc	der
[4.cc	Sturm!
4cc]}	|}
{8e	{Es
=38	=38
[4.e	beb-
8e]	|
8g	-ten
8b	die
[4.cc	Glie-
8cc]	|
8g	-der,
8e	wie
=39	=39
4.cc	jet-
4cc	-zo
8cc	das
[4.cc	Haus!
4cc]}	|}
{8fn	{Es
=40	=40
[4.fn	flamm-
8fn]	|
8a-	-te
8b-	die
[4.cc	Lie-
8cc]	|
8a-	-be,
8fn	wie
=41	=41
4.dd-	jet-
4dd-	-zo
8dd-	der
2.dd-}	Blitz!}
=42	=42
2.r	.
4.r	.
4r	.
{8dd-	{Und
=43	=43
2.dd-	fin-
4.dd-	-ster
4.dd-	die
=44	=44
[2.dd-	Brust,
4.dd-]	|
4.dd-	und
=45	=45
2.cc	fin-
4.cc	-ster
4.cc	die
=46	=46
2.cc}	Brust,}
2.r	.
=48	=48
{[2.b	{wie
4.b]	|
4.b	das
=49	=49
1.b}	Grab!}
=51	=51
2.r	.
4.r	.
4r	.
{8e	{Nun
=52	=52
*k[f#c#g#d#]	*
[4.e	to-
8e]	|
8g#	-be,
8a	du
[4.b	wil-
8b]	|
8g#	-der,
8e	ge-
=53	=53
4.b	-walt-
4.b	-ger
[4.b	Sturm!
4b]}	|}
{8b	{Im
=54	=54
[4.cc#	Her-
8cc#]	|
8dd#	-zen
8ee	ist
4.dd#	Frie-
4b	-de,
8b	im
=55	=55
[4.cc#	Her-
8cc#]	|
8dd#	-zen
8ee	ist
[4.dd#	Ruh!
8dd#]}	|}
8r	.
{8dd#	{Des
=56	=56
[4.dd#	Bra2u-
8dd#]	|
8b#	-ti-
8a	-gams
[4.g#	har-
8g#]	|
8b#	-ret
8cc#	die
=57	=57
[4.dd#	lie-
8dd#]	|
8b#	-ben-
8an	-de
4.g#}	Braut,}
4r	.
{8dd#	{ge-
=58	=58
4.ee	-rei-
4bn	-nigt
8g#	in
4e	pru2-
8g#	|
4bn	-fen-
8ee	-der
=59	=59
[4.ee	Glut
4ee]	|
8ee	der
4dd#	e-
8cc#	|
4b	-wi-
8a	-gen,
=60	=60
[4.g#	e-
8g#]	|
8a	-wi-
8b	-gen
[4.b	Lie-
8b]	|
8cc#	-be
8dd#	ge-
=61	=61
2.ee}	-traut.}
4.r	.
4r	.
{8b	{Ich
=62	=62
4.b	har-
4b	-re,
8b	mein
4.b	Hei-
4b	-land,
8b	mit
=63	=63
4b	seh-
8ccn	|
4ccn	-nen-
8ccn	-dem
[4.ccn	Blick;
4ccn]}	|}
{8ccn	{komm,
=64	=64
4ccn	himm-
8ddn	|
4ddn	-lisch-
8ddn	-er
4ddn	Bra2u-
8ee	-ti-
4.ddn	-gam,
=65	=65
[4.ddn	ho-
8ddn]	|
8ee	-le
8ffn	die
2.ee}	Braut!}
=66	=66
2.r	.
4.r	.
4r	.
{8ccn	{Er-
=67	=67
[4.ccn	-lo2-
8ccn]	|
8dd-	-se
8ccn	die
4.ccn	See-
4ccn	-le
8ccn	von
=68	=68
[4.ccn	ir-
8ccn]	|
8dd-	-di-
8ccn	-scher
2.ccn}	Haft!}
=70	=70
2.r	.
4.r	.
{4.bn	{Horch!
=71	=71
[4.ee	fried-
4ee]	|
8a#	|
4.a#	-lich
4.a#	er-
=72	=72
[4.b	-to2-
4b]	|
8cc#	|
4.b	-net
4.b	das
=73	=73
2.cc#	Glo2ck-
4.b	-lein
4.b	vom
=74	=74
2.cc#	Turm;
4b}	|}
8r	.
4.r	.
=75	=75
2.r	.
4.r	.
4r	.
{8b	{es
=76	=76
4.b	lockt
4f#	mich
8d#	das
4B	su2-
8e	|
4g#	-sse
8b	Ge-
=77	=77
[2.b	-to2n
4b]}	|}
4.r	.
{8b	{all-
=78	=78
4.cc#	-ma2ch-
4g#	-tig
8e#	zu
4c#	e-
8f#	|
4a	-wi-
8cc#	-gen
=79	=79
[2.cc#	Ho2hn,
4cc#]}	|}
4.r	.
{8cc#	{es
=80	=80
4.ee	lockt
4b	mich
8g#	das
4e	su2-
8a	|
4cc#	-sse
8ee	Ge-
=81	=81
[4.ee	to2n
4ee]	|
8ee	all-
4dd#	-ma2ch-
8cc#	|
4b	-tig
8a	zu
=82	=82
[4.g#	e-
8g#]	|
8a	-wi-
8b	-gen,
[4.b	e-
8b]	|
8cc#	-wi-
8dd	-gen
=83	=83
2.ee}	Ho2hn.}
2.r	.
=85	=85
{2.b	{Al-
2.cc#	-le-
=86	=86
1.b	-lu-
=87	=87
4.g#}	-ja!}
4.r	.
2.r	.
=89	=89
{2.b	{Al-
2.cc#	-le-
=90	=90
1.b	-lu-
=91	=91
4.g#}	-ja!}
4.r	.
2.r	.
*-	*-